actions/22x22-light/view-time-schedule-edit.svg

<svg viewBox="0 0 22 22" xmlns="http://www.w3.org/2000/svg"><path d="m4 3c-.55402 0-1 .44598-1 1v14c0 .55402.44598 1 1 1h14c .55402 0 1-.44598 1-1v-14c0-.55402-.44598-1-1-1zm10.28516 3c .0901 0 .17633.0358.24023.0996l1.375 1.375c.133.13304.133.34743 0 .48047l-.76758.76758-1.85547-1.85547.76758-.76758c.0639-.0639.15009-.0996.24024-.0996zm-1.24805 1.10742 1.85547 1.85547-.26563.26758-1.85547-1.85742zm-.50781.50781 1.85742 1.85547-.26758.26563-1.85547-1.85547zm-.50782.50586 1.85743 1.85743-5.22852 5.22851c-.0372.0373-.0827.0651-.13281.082l-2.06836.69336c-.0356.012-.0712.0176-.10742.0176-.0888 0-.17739-.0347-.24219-.0996-.0915-.0915-.12292-.22686-.082-.34961l.69336-2.06836c.0169-.0498.0448-.0955.082-.13281z" fill="#4d4d4d"/></svg>

<svg xmlns="http://www.w3.org/2000/svg" viewBox="0 0 22 22">
  <defs id="defs3051">
    <style type="text/css" id="current-color-scheme">
      .ColorScheme-Text {
        color:#4d4d4d
      }
      </style>
  </defs>
 <path 
     style="fill:currentColor;fill-opacity:1;stroke:none"      
	 class="ColorScheme-Text"
        d="M 4,3 C 3.44598,3 3,3.44598 3,4 l 0,14 c 0,0.55402 0.44598,1 1,1 l 14,0 c 0.55402,0 1,-0.44598 1,-1 L 19,4 C 19,3.44598 18.55402,3 18,3 L 4,3 Z m 10.28516,3 c 0.0901,0 0.17633,0.0358 0.24023,0.0996 l 1.375,1.375 c 0.133,0.13304 0.133,0.34743 0,0.48047 L 15.13281,8.72265 13.27734,6.86718 14.04492,6.0996 C 14.10882,6.0357 14.19501,6 14.28516,6 Z M 13.03711,7.10742 14.89258,8.96289 14.62695,9.23047 12.77148,7.37305 13.03711,7.10742 Z M 12.5293,7.61523 14.38672,9.4707 14.11914,9.73633 12.26367,7.88086 12.5293,7.61523 Z m -0.50782,0.50586 1.85743,1.85743 -5.22852,5.22851 c -0.0372,0.0373 -0.0827,0.0651 -0.13281,0.082 l -2.06836,0.69336 c -0.0356,0.012 -0.0712,0.0176 -0.10742,0.0176 -0.0888,0 -0.17739,-0.0347 -0.24219,-0.0996 -0.0915,-0.0915 -0.12292,-0.22686 -0.082,-0.34961 l 0.69336,-2.06836 c 0.0169,-0.0498 0.0448,-0.0955 0.082,-0.13281 l 5.22851,-5.22852 z"
     />
</svg>
